assets/Saluting face/Flat/saluting_face_flat.svg

<svg width="32" height="32" viewBox="0 0 32 32" fill="none" xmlns="http://www.w3.org/2000/svg">
<path d="M18.2974 30C26.299 30 30.2974 24.6274 30.2974 18C30.2974 11.3726 26.299 6 18.2974 6C10.2958 6 6.29736 11.3726 6.29736 18C6.29736 24.6274 10.2958 30 18.2974 30Z" fill="#FFB02E"/>
<path d="M13.5141 18.1937C15.5053 18.1937 17.1195 16.5795 17.1195 14.5883C17.1195 12.5971 15.5053 10.9829 13.5141 10.9829C11.5229 10.9829 9.90869 12.5971 9.90869 14.5883C9.90869 16.5795 11.5229 18.1937 13.5141 18.1937Z" fill="white"/>
<path d="M23.0713 18.2594C25.0807 18.2594 26.7096 16.6305 26.7096 14.6212C26.7096 12.6118 25.0807 10.9829 23.0713 10.9829C21.0619 10.9829 19.433 12.6118 19.433 14.6212C19.433 16.6305 21.0619 18.2594 23.0713 18.2594Z" fill="white"/>
<path d="M16.5837 14.5726C16.5837 15.9929 15.4323 17.1442 14.0121 17.1442C12.5918 17.1442 11.4404 15.9929 11.4404 14.5726C11.4404 13.1523 12.5918 12.001 14.0121 12.001C15.4323 12.001 16.5837 13.1523 16.5837 14.5726Z" fill="#402A32"/>
<path d="M25.1558 14.5726C25.1558 15.9929 24.0045 17.1442 22.5842 17.1442C21.1639 17.1442 20.0125 15.9929 20.0125 14.5726C20.0125 13.1523 21.1639 12.001 22.5842 12.001C24.0045 12.001 25.1558 13.1523 25.1558 14.5726Z" fill="#402A32"/>
<path d="M14.8996 20.1779C14.6556 19.8432 14.1865 19.7696 13.8517 20.0136C13.517 20.2575 13.4434 20.7267 13.6873 21.0614C14.2345 21.8122 15.8343 23.2134 18.1372 23.2134C20.4194 23.2134 22.2304 21.8336 22.878 21.126C23.1576 20.8205 23.1366 20.3461 22.8311 20.0664C22.5255 19.7868 22.0511 19.8078 21.7714 20.1133C21.294 20.6349 19.855 21.7134 18.1372 21.7134C16.4401 21.7134 15.2482 20.6563 14.8996 20.1779Z" fill="#402A32"/>
<path d="M14.7848 2.63678C14.9001 2.56746 15.0168 2.49735 15.1436 2.4541C15.4101 2.57031 15.699 2.69559 15.699 2.69559L15.9206 3.65463C16.309 3.62626 16.6978 3.81634 16.9056 4.17618C17.1951 4.67757 17.0233 5.31869 16.5219 5.60817L12.6212 7.86022C13.0644 7.71054 13.566 7.86897 13.8383 8.26984C14.1741 8.76417 14.0359 9.43817 13.5326 9.76041L11.1175 11.1035C10.0981 11.7562 8.91314 12.103 7.70278 12.103H4.79541L7.77306 7.26435C7.33761 6.49098 6.95306 5.78125 6.95306 5.78125L11.5021 3.11084L11.9579 2.84766L14.6856 2.69559C14.7187 2.67649 14.7517 2.65667 14.7848 2.63678Z" fill="#FF822D"/>
<path d="M10.2354 2.94321C10.656 2.70038 11.1749 2.78213 11.5021 3.11074L13.1756 2.14453C13.677 1.85505 14.3181 2.02684 14.6076 2.52823C14.6389 2.58248 14.6649 2.63836 14.6856 2.69526L14.9568 2.53867C15.4582 2.24919 16.0993 2.42098 16.3888 2.92237C16.6782 3.42376 16.5065 4.06489 16.0051 4.35437L9.36839 8.18606C9.45585 7.88564 9.51409 7.57501 9.54081 7.25823L14.4812 4.4059C15.1689 4.00887 15.4406 3.16813 15.1437 2.4541C15.08 2.47584 15.0173 2.50372 14.9568 2.53867L14.6856 2.69526C14.8559 3.16418 14.671 3.70219 14.2239 3.9603L9.55763 6.65438V6.34962L11.5409 5.20456C12.2884 4.773 12.5445 3.81719 12.113 3.06971C12.067 2.99003 12.015 2.91593 11.958 2.84766L11.5021 3.11074C11.5649 3.17386 11.6207 3.24619 11.6674 3.32697C11.9568 3.82836 11.7851 4.46949 11.2837 4.75897L8.98864 6.084V6.16272C8.98864 6.34023 8.9808 6.51666 8.96535 6.69158L8.96174 6.7309C8.95261 6.82716 8.94116 6.92296 8.92745 7.01822C8.89468 7.2459 8.84894 7.47051 8.79084 7.69105C8.70979 7.99874 8.60468 8.2985 8.47687 8.58771C8.47681 8.58772 8.47693 8.58771 8.47687 8.58771C7.99626 9.67504 7.19549 10.613 6.15365 11.2599L4.79545 12.1031C3.25156 12.1031 2 10.8516 2 9.30768V9.23626C2 8.17786 2.58314 7.20557 3.51683 6.70716L5.8765 5.44756L5.8743 5.46108L10.2354 2.94321Z" fill="#FFB02E"/>
</svg>

<svg xmlns="http://www.w3.org/2000/svg" width="32" height="32" fill="none"><path fill="#FFB02E" d="M18.297 30c8.002 0 12-5.373 12-12s-3.998-12-12-12c-8.001 0-12 5.373-12 12s3.999 12 12 12Z"/><path fill="#fff" d="M13.514 18.194a3.605 3.605 0 1 0 0-7.211 3.605 3.605 0 0 0 0 7.21ZM23.071 18.26a3.638 3.638 0 1 0 0-7.277 3.638 3.638 0 0 0 0 7.276Z"/><path fill="#402A32" d="M16.584 14.573a2.572 2.572 0 1 1-5.144 0 2.572 2.572 0 0 1 5.144 0ZM25.156 14.573a2.572 2.572 0 1 1-5.143 0 2.572 2.572 0 0 1 5.143 0ZM14.9 20.178a.75.75 0 0 0-1.213.883c.548.751 2.147 2.152 4.45 2.152 2.282 0 4.093-1.38 4.741-2.087a.75.75 0 0 0-1.107-1.013c-.477.522-1.916 1.6-3.634 1.6-1.697 0-2.889-1.057-3.237-1.535Z"/><path fill="#FF822D" d="M14.785 2.637c.115-.07.232-.14.359-.183l.555.242.222.959a1.048 1.048 0 0 1 .6 1.953l-3.9 2.252a1.062 1.062 0 0 1 .912 1.9l-2.415 1.344c-1.02.652-2.205.999-3.415.999H4.795l2.978-4.839c-.435-.773-.82-1.483-.82-1.483l4.55-2.67.455-.263 2.728-.152.099-.06Z"/><path fill="#FFB02E" d="M10.235 2.943c.421-.243.94-.16 1.267.168l1.674-.966a1.048 1.048 0 0 1 1.51.55l.27-.156a1.048 1.048 0 0 1 1.05 1.815L9.367 8.186c.088-.3.146-.611.173-.928l4.94-2.852c.688-.397.96-1.238.663-1.952-.064.022-.127.05-.187.085l-.271.156a1.049 1.049 0 0 1-.462 1.265L9.558 6.654V6.35l1.983-1.145a1.563 1.563 0 0 0 .417-2.357l-.456.263a1.048 1.048 0 0 1-.218 1.648L8.989 6.084v.079c0 .177-.008.354-.024.529l-.003.039a5.982 5.982 0 0 1-.485 1.857 5.999 5.999 0 0 1-2.323 2.672l-1.359.843A2.795 2.795 0 0 1 2 9.308v-.072c0-1.058.583-2.03 1.517-2.529l2.36-1.26-.003.014 4.361-2.518Z"/></svg>
